X:257
T:Jig in A
M:6/8
L:1/8
R:jig
D:Bonnie Rideout: Celtic Circles
Z:Michael Abraham Shulman
N:Set is Mary Do It Again - Cross Roads - ~
N:Suzi
K:Amix
|:EAA AGA|Bdd dBd|eae dBG|ABA AGF|
EAA AGA|Bdd dBd|eae dBG|1 BAA A2E:|2 BAA ABd|
|:eaa e3|eaa bag|eaa e3|BGB dBG|
eaa e3|eaa bag|eae dBG|1 BAA ABd:|2 BAA A2E|

